openmetadata-ui/src/main/resources/ui/src/assets/svg/external-link.svg

<svg width="16" height="16" viewBox="0 0 16 16" fill="none" xmlns="http://www.w3.org/2000/svg">
<g clip-path="url(#clip0_14106_20469)">
<path d="M13.4615 8.0769C13.3391 8.0769 13.2217 8.12553 13.1352 8.21209C13.0486 8.29864 13 8.41604 13 8.53844V12.6923C13 13.0595 12.8541 13.4117 12.5945 13.6714C12.3348 13.931 11.9826 14.0769 11.6154 14.0769H3.30769C2.94047 14.0769 2.58829 13.931 2.32862 13.6714C2.06896 13.4117 1.92308 13.0595 1.92308 12.6923V4.3846C1.92308 4.01737 2.06896 3.66519 2.32862 3.40553C2.58829 3.14586 2.94047 2.99998 3.30769 2.99998H7.46154C7.58395 2.99998 7.70134 2.95136 7.7879 2.8648C7.87445 2.77824 7.92308 2.66085 7.92308 2.53844C7.92308 2.41604 7.87445 2.29864 7.7879 2.21209C7.70134 2.12553 7.58395 2.0769 7.46154 2.0769H3.30769C2.69565 2.0769 2.10868 2.32004 1.67591 2.75281C1.24313 3.18559 1 3.77256 1 4.3846V12.6923C1 13.3043 1.24313 13.8913 1.67591 14.3241C2.10868 14.7569 2.69565 15 3.30769 15H11.6154C12.2274 15 12.8144 14.7569 13.2472 14.3241C13.6799 13.8913 13.9231 13.3043 13.9231 12.6923V8.53844C13.9231 8.41604 13.8745 8.29864 13.7879 8.21209C13.7013 8.12553 13.5839 8.0769 13.4615 8.0769Z" fill="#7147E8" stroke="#7147E8" stroke-width="0.1"/>
<path d="M10.3846 2.15386H13.0327L6.51343 8.66731C6.45935 8.72095 6.41643 8.78475 6.38714 8.85506C6.35785 8.92536 6.34277 9.00077 6.34277 9.07693C6.34277 9.15309 6.35785 9.2285 6.38714 9.2988C6.41643 9.3691 6.45935 9.43291 6.51343 9.48654C6.56706 9.54062 6.63087 9.58354 6.70117 9.61283C6.77147 9.64212 6.84688 9.6572 6.92304 9.6572C6.9992 9.6572 7.07461 9.64212 7.14491 9.61283C7.21522 9.58354 7.27902 9.54062 7.33266 9.48654L13.8461 2.97309V5.61539C13.8461 5.7684 13.9069 5.91514 14.0151 6.02334C14.1233 6.13153 14.27 6.19231 14.423 6.19231C14.576 6.19231 14.7228 6.13153 14.831 6.02334C14.9392 5.91514 15 5.7684 15 5.61539V1.57693C15.0004 1.50101 14.9858 1.42574 14.9571 1.35545C14.9284 1.28516 14.8861 1.22122 14.8327 1.16732C14.7787 1.11385 14.7148 1.07154 14.6445 1.04283C14.5742 1.01412 14.499 0.999571 14.423 1.00001H10.3846C10.2316 1.00001 10.0848 1.06079 9.97663 1.16899C9.86844 1.27718 9.80765 1.42392 9.80765 1.57693C9.80765 1.72994 9.86844 1.87668 9.97663 1.98488C10.0848 2.09307 10.2316 2.15386 10.3846 2.15386Z" fill="#7147E8" stroke="#7147E8" stroke-width="0.1"/>
</g>
<defs>
<clipPath id="clip0_14106_20469">
<rect width="16" height="16" fill="white"/>
</clipPath>
</defs>
</svg>

<svg xmlns="http://www.w3.org/2000/svg" width="16" height="16" fill="none"><g fill="#7147E8" stroke="#7147E8" stroke-width=".1" clip-path="url(#a)"><path d="M13.461 8.077a.461.461 0 0 0-.461.461v4.154a1.385 1.385 0 0 1-1.385 1.385H3.308a1.385 1.385 0 0 1-1.385-1.385V4.385A1.385 1.385 0 0 1 3.308 3h4.154a.462.462 0 1 0 0-.923H3.308A2.308 2.308 0 0 0 1 4.385v8.307A2.308 2.308 0 0 0 3.308 15h8.307a2.308 2.308 0 0 0 2.308-2.308V8.538a.461.461 0 0 0-.462-.461Z"/><path d="M10.385 2.154h2.648l-6.52 6.513a.577.577 0 0 0 .188.946.577.577 0 0 0 .632-.126l6.513-6.514v2.642a.577.577 0 0 0 1.154 0V1.577a.578.578 0 0 0-.355-.534.577.577 0 0 0-.222-.043h-4.038a.577.577 0 1 0 0 1.154Z"/></g><defs><clipPath id="a"><path fill="#fff" d="M0 0h16v16H0z"/></clipPath></defs></svg>
